dist/assets/images/loyal.svg

<svg xmlns="http://www.w3.org/2000/svg" width="40" height="40" viewBox="0 0 40 40" fill="none">
  <path d="M36.666 28.6667C36.666 30.1667 36.2494 31.5833 35.4994 32.7833C34.116 35.1 31.5827 36.6667 28.666 36.6667C25.7493 36.6667 23.1993 35.1 21.8327 32.7833C21.0993 31.5833 20.666 30.1667 20.666 28.6667C20.666 24.2501 24.2493 20.6667 28.666 20.6667C33.0827 20.6667 36.666 24.2501 36.666 28.6667Z" stroke="url(#paint0_linear_15_615)" stroke-width="2" stroke-miterlimit="10" stroke-linecap="round" stroke-linejoin="round"/>
  <path d="M25.5488 28.6667L27.5155 30.6334L31.7822 26.7001" stroke="url(#paint1_linear_15_615)" stroke-width="2" stroke-linecap="round" stroke-linejoin="round"/>
  <path d="M36.6673 14.4833C36.6673 17.7667 35.8173 20.6666 34.484 23.1833C33.0173 21.6333 30.9507 20.6667 28.6673 20.6667C24.2507 20.6667 20.6673 24.25 20.6673 28.6667C20.6673 30.7167 21.4507 32.5834 22.7173 34C22.1007 34.2834 21.534 34.5167 21.034 34.6833C20.4673 34.8833 19.534 34.8833 18.9673 34.6833C14.134 33.0333 3.33398 26.15 3.33398 14.4833C3.33398 9.33334 7.48399 5.16663 12.6007 5.16663C15.6173 5.16663 18.3173 6.63336 20.0007 8.88336C21.684 6.63336 24.384 5.16663 27.4006 5.16663C32.5173 5.16663 36.6673 9.33334 36.6673 14.4833Z" stroke="url(#paint2_linear_15_615)" stroke-width="2" stroke-linecap="round" stroke-linejoin="round"/>
  <defs>
    <linearGradient id="paint0_linear_15_615" x1="47.8162" y1="36.7377" x2="24.3226" y2="13.364" gradientUnits="userSpaceOnUse">
      <stop stop-color="#D61607"/>
      <stop offset="0.489583" stop-color="#F87717"/>
      <stop offset="1" stop-color="#FECE24"/>
    </linearGradient>
    <linearGradient id="paint1_linear_15_615" x1="36.1261" y1="30.6508" x2="30.9015" y2="22.4134" gradientUnits="userSpaceOnUse">
      <stop stop-color="#D61607"/>
      <stop offset="0.489583" stop-color="#F87717"/>
      <stop offset="1" stop-color="#FECE24"/>
    </linearGradient>
    <linearGradient id="paint2_linear_15_615" x1="59.8969" y1="34.965" x2="16.6042" y2="-13.4303" gradientUnits="userSpaceOnUse">
      <stop stop-color="#D61607"/>
      <stop offset="0.489583" stop-color="#F87717"/>
      <stop offset="1" stop-color="#FECE24"/>
    </linearGradient>
  </defs>
</svg>

<svg xmlns="http://www.w3.org/2000/svg" width="40" height="40" fill="none"><path d="M36.666 28.667c0 1.5-.417 2.916-1.167 4.116a7.947 7.947 0 0 1-6.833 3.884 7.926 7.926 0 0 1-6.833-3.884 7.896 7.896 0 0 1-1.167-4.116c0-4.417 3.583-8 8-8s8 3.583 8 8Z" stroke="url(#a)" stroke-width="2" stroke-miterlimit="10" stroke-linecap="round" stroke-linejoin="round"/><path d="m25.549 28.667 1.966 1.966 4.267-3.933" stroke="url(#b)" stroke-width="2" stroke-linecap="round" stroke-linejoin="round"/><path d="M36.667 14.483c0 3.284-.85 6.184-2.183 8.7a7.99 7.99 0 0 0-5.817-2.516c-4.416 0-8 3.583-8 8 0 2.05.784 3.916 2.05 5.333-.616.283-1.183.517-1.683.683-.567.2-1.5.2-2.067 0-4.833-1.65-15.633-8.533-15.633-20.2 0-5.15 4.15-9.316 9.267-9.316A9.248 9.248 0 0 1 20 8.883a9.248 9.248 0 0 1 7.4-3.716c5.116 0 9.266 4.166 9.266 9.316Z" stroke="url(#c)" stroke-width="2" stroke-linecap="round" stroke-linejoin="round"/><defs><linearGradient id="a" x1="47.816" y1="36.738" x2="24.323" y2="13.364" gradientUnits="userSpaceOnUse"><stop stop-color="#D61607"/><stop offset=".49" stop-color="#F87717"/><stop offset="1" stop-color="#FECE24"/></linearGradient><linearGradient id="b" x1="36.126" y1="30.651" x2="30.901" y2="22.413" gradientUnits="userSpaceOnUse"><stop stop-color="#D61607"/><stop offset=".49" stop-color="#F87717"/><stop offset="1" stop-color="#FECE24"/></linearGradient><linearGradient id="c" x1="59.897" y1="34.965" x2="16.604" y2="-13.43" gradientUnits="userSpaceOnUse"><stop stop-color="#D61607"/><stop offset=".49" stop-color="#F87717"/><stop offset="1" stop-color="#FECE24"/></linearGradient></defs></svg>
